X: 1
T:I'll make you be fain to follow Me
R:jig
C:traditional
O:18th century Scottish
B:Bremner's Collections, 1757
N:Melodic Codes 31H2H2 31H 71H (3122 3171)
Z:Paul Stewart Cranford (P.S.C.), <http://www.cranfordpub.com>
L:1/8
M:6/8
K:C
C |\
E{F}GA c2 e | dDD D2 C | E{F}GA cdc | B>AB cGE |\
FdF EcE | dDD D2 C | E{F}GA c2 G | ECC C2 :|
g |\
ega gec | f>ge Td2 c | ega gec | ga/g/f/e/ gec |\
f/e/f/g/a gec | e{f}ge d2 D | E{F}GA c2 G | ECC C2 :|
g |\
ega gec | f>ge Td2 c | ega gec | ga/g/f/e/ gec |\
f/e/f/g/a gec | fg{f}e/ dgf | e2 c e{f}gd ecc c2 |]
